X:1
T:Title
%%score 1 { 2 | 3 }
L:1/8
Q:1/4=115
M:4/4
K:G
V:1 treble nm="Grand Piano, Staff 1"
V:2 bass nm="Choir Pad, North Coates, 65.65"
V:3 bass 
V:1
 [B,D]2 [B,D]2 [CE]2 E2 | [DG]4 [DG]4 | [DF]2 [DF]2 [^CG]2 [CE]2 | D8 | [DG]2 [DG]2 [GB]2 [GB]2 | %5
w: By~Timothy~Richard~Matthews~(1826\-1910) * * *|||||
 [Fd]4 [Gd]4 | [GB]2 [GB]2 [Ec]2 [FA]2 | G8 |] %8
w: |||
V:2
 G,2 G,2 G,2 C2 | C4 B,4 | A,2 A,2 A,2 G,2 | F,8 | B,2 B,2[K:treble] D2 D2 | C4 B,4 | D2 D2 C2 C2 | %7
 B,8 |] %8
V:3
 G,,2 G,,2 C,2 C,2 | G,,4 G,,4 | A,,2 A,,2 A,,2 A,,2 | D,8 | G,2 G,2 G,2 G,2 | A,4 z4 | %6
 G,2 G,2 C,2 D,2 | G,,8 |] %8

